!!!COM: Bach, Johann Sebastian
!!!CDT: 1685/3//-1750/7/28/
!!!OTL@@DE: Wie schoen leuchtet der Morgenstern
!!!OTL@EN: How bright appears the morning star
!!!AGN: 4-Part Chorale
!!!SCT: BH 323
!!!SCT: BWV 172
**harm	**root	**kern	**kern	**kern	**kern
!	!	!bass	!tenor	!alto	!soprno
*	*Iorgan	*Iorgan	*Iorgan	*Iorgan	*Iorgan
*M4/4	*M4/4	*M4/4	*M4/4	*M4/4	*M4/4
*met(c)	*met(c)	*met(c)	*met(c)	*met(c)	*met(c)
*MM56	*MM56	*MM56	*MM56	*MM56	*MM56
*k[]	*k[]	*k[]	*k[]	*k[]	*k[]
*C:	*C:	*C:	*C:	*C:	*C:
*>[A,A,B]	*>[A,A,B]	*>[A,A,B]	*>[A,A,B]	*>[A,A,B]	*>[A,A,B]
*>A	*>A	*>A	*>A	*>A	*>A
I	4FF	4C	4E	4G	4c
=1	=1	=1	=1	=1	=1
Vb	4CC	4BB	4D	4G	8g
.	.	.	.	.	8f
I	8FF	8C	8C	4G	8e
Vb	8CC	8BB	8D	.	8d
vi	4DD	4AA	8E	8A	4c
.	.	.	8F	8B	.
Ib	4FF	4EE	4G	4c	4g
=2	=2	=2	=2	=2	=2
IV	4BB-	8FF	8G	4c	4a
.	.	8GG	16F	.	.
.	.	.	16E	.	.
IVb	4BB-	8AA	8F	4c	4a
.	.	8BB	8F	.	.
I;	4FF;	4C;	4E;	4c;	4g;
Vb	4CC	4BB	4G	4d	4g
=3	=3	=3	=3	=3	=3
vib	4DD	4C	4G	4e	4a
v/iii	4EE	4D	4F#	4d	4b
Ib	8FF	8E	8G	8c	4cc
V7b/V	8GG	8F#	8A	8d	.
V	8CC	8G	8B	4d	4b
Vb	8CC	8BB	8D	.	.
=4	=4	=4	=4	=4	=4
vib	4DD	8C	8E	4c	4a
.	.	8AA	8A	.	.
V7/V	4GG	4D	4F#	4c	4a
V;	4CC;	4GG;	4G;	4B;	4g;
I	4FF	4C	4G	4c	4e
=5	=5	=5	=5	=5	=5
IV	4BB-	4FF	8F	4c	4a
.	.	.	8E	.	.
V	4CC	4GG	4D	4B	4g
IVb	8BB-	8AA	8A	8c	4f
V7b	8CC	8BB	8G	8d	.
I	4FF	8C	4G	4c	4e
.	.	8FF	.	.	.
=6	=6	=6	=6	=6	=6
V	2CC	2GG	2G	4c	2d
.	.	.	.	4B	.
I;	4FF;	4CC;	4G;	4c;	4c;
=:|!	=:|!	=:|!	=:|!	=:|!	=:|!
*>B	*>B	*>B	*>B	*>B	*>B
r	4r	4r	4r	4r	4r
=7	=7	=7	=7	=7	=7
Vb	2CC	2BB	2G	2d	2g
I;	2FF;	2C;	2G;	2e;	2e;
=8	=8	=8	=8	=8	=8
V	2CC	2GG	2G	2d	2g
I;	2FF;	2CC;	2G;	2c;	2e;
!!linebreak: 2
=9	=9	=9	=9	=9	=9
I	4FF	8CC	4G	4c	4e
.	.	8DD	.	.	.
Ib	4FF	8EE	4G	4c	4e
.	.	8FF	.	.	.
V	4CC	8GG	4G	8B	4d
.	.	8AA	.	8A	.
Vb	4CC	8BB	8G	4G	4d
.	.	8GG	8F	.	.
=10	=10	=10	=10	=10	=10
I	4FF	8C	8E	4G	4e
.	.	8D	8F	.	.
Ib	4FF	8E	4G	8G	4e
.	.	8F	.	8A	.
V	4CC	8G	4G	4B	4d
.	.	8F	.	.	.
Vc	4CC	8E	4G	4B	4d
.	.	8D	.	.	.
=11	=11	=11	=11	=11	=11
I	4FF	8C	4G	4c	4e
.	.	8BB	.	.	.
vi	4DD	8AA	4A	4c	4e
.	.	8GG	.	.	.
ii7b	4GG	8FF	4A	4c	2d
.	.	8DD	.	.	.
V	4CC	4GG	8G	4B	.
.	.	.	8F	.	.
=12	=12	=12	=12	=12	=12
I;	2FF;	2CC;	2E;	2c;	2c;
vi	4DD	8AAA	8A	4e	4cc
.	.	8CC	8G	.	.
viiob	4EE	8DD	4F	4d	4b
.	.	8EE	.	.	.
=13	=13	=13	=13	=13	=13
IV	4BB-	4FF	8F	4c	4a
.	.	.	8E	.	.
V	4CC	4GG	4D	4B	4g
IVb	4BB-	8AA	8C	4A	4f
.	.	8BB	8D	.	.
I	8FF	8C	8E	4G	4e
Ib	8FF	8EE	8G	.	.
=14	=14	=14	=14	=14	=14
iib	4GG	8FF	8.F	4A	2d
.	.	8DD	.	.	.
.	.	.	16E	.	.
V	4CC	4GG	4D	4G	.
I;	4FF;	4CC;	4E;	4G;	4c;
==	==	==	==	==	==
*-	*-	*-	*-	*-	*-
!!chor2scor: -l 2 -o %b.pmx
!!!YEC: Copyright 1994, David Huron
!!!YEC: Changes/Additions 2001 by Craig Stuart Sapp
!!!YEN: United States of America
!!!SMA: 371 Bach Chorales, edited by Ludwig Erk, C.F. Peters
!!!PDT: 1850, 1865
!!!ONB: Harmony and Root analysis done manually
